svgs/thin/ramp-loading.svg

<svg xmlns="http://www.w3.org/2000/svg" viewBox="0 0 384 512"><!--! Font Awesome Pro 6.0.0-alpha3 by @fontawesome - https://fontawesome.com License - https://fontawesome.com/license (Commercial License) --><path d="M344 0h-304C17.94 0 0 17.94 0 40v304.8c0 20.12 15.38 36.97 35.75 39.19c4.281 .9062 8.328-2.688 8.828-7.062c.4844-4.406-2.688-8.344-7.078-8.812C25.23 366.7 16 356.7 16 344.8V40c0-13.23 10.77-24 24-24h304c13.23 0 24 10.77 24 24v304.8c0 11.94-9.234 21.97-21.5 23.31c-4.391 .4687-7.562 4.406-7.078 8.812C339.9 380.1 343.3 384 347.4 384c.2969 0 .5938 0 .8906-.0625C368.6 381.7 384 364.9 384 344.8V40C384 17.94 366.1 0 344 0zM273 308.4C271.7 305.7 268.9 304 265.9 304H118.1c-3.031 0-5.797 1.719-7.156 4.406l-84.44 168.9c-3.75 7.5-3.344 16.22 1.062 23.34S39.64 512 48.02 512h287.1c8.375 0 16-4.25 20.41-11.38s4.812-15.84 1.062-23.38L273 308.4zM342.8 492.2C342.1 493.3 340 496 335.1 496H48.02c-4.031 0-6.094-2.656-6.797-3.781c-.7031-1.156-2.156-4.188-.3594-7.781L123.1 320h137.8l82.22 164.4C344.9 488 343.5 491.1 342.8 492.2z"/></svg>

<svg xmlns="http://www.w3.org/2000/svg" viewBox="0 0 384 512"><!-- Font Awesome Pro 6.0.0-alpha2 by @fontawesome - https://fontawesome.com License - https://fontawesome.com/license (Commercial License) --><path d="M344 0H40C17.938 0 0 17.938 0 40V344.75C0 364.875 15.375 381.719 35.75 383.938C40.031 384.844 44.078 381.25 44.578 376.875C45.062 372.469 41.891 368.531 37.5 368.063C25.234 366.719 16 356.688 16 344.75V40C16 26.766 26.766 16 40 16H344C357.234 16 368 26.766 368 40V344.75C368 356.688 358.766 366.719 346.5 368.062C342.109 368.531 338.938 372.469 339.422 376.875C339.875 380.969 343.344 384 347.359 384C347.656 384 347.953 384 348.25 383.938C368.625 381.719 384 364.875 384 344.75V40C384 17.938 366.062 0 344 0ZM273.016 308.406C271.656 305.719 268.891 304 265.859 304H118.141C115.109 304 112.344 305.719 110.984 308.406L26.547 477.281C22.797 484.781 23.203 493.5 27.609 500.625S39.641 512 48.016 512H335.984C344.359 512 351.984 507.75 356.391 500.625S361.203 484.781 357.453 477.25L273.016 308.406ZM342.781 492.219C342.078 493.344 340.016 496 335.984 496H48.016C43.984 496 41.922 493.344 41.219 492.219C40.516 491.062 39.063 488.031 40.859 484.437L123.078 320H260.922L343.141 484.406C344.938 488.031 343.484 491.062 342.781 492.219Z"/></svg>
